dist/images/icons/menu.svg

<svg width="27" height="24" viewBox="0 0 27 24" fill="none" xmlns="http://www.w3.org/2000/svg">
<g clip-path="url(#clip0_6_364)" filter="url(#filter0_d_6_364)">
<path d="M4.77136 18H22.7807V16H4.77136V18ZM4.77136 13H22.7807V11H4.77136V13ZM4.77136 6V8H22.7807V6H4.77136Z" fill="white"/>
</g>
<defs>
<filter id="filter0_d_6_364" x="-2.23022" y="-4" width="32.0125" height="32" filterUnits="userSpaceOnUse" color-interpolation-filters="sRGB">
<feFlood flood-opacity="0" result="BackgroundImageFix"/>
<feColorMatrix in="SourceAlpha" type="matrix" values="0 0 0 0 0 0 0 0 0 0 0 0 0 0 0 0 0 0 127 0" result="hardAlpha"/>
<feOffset/>
<feGaussianBlur stdDeviation="2"/>
<feColorMatrix type="matrix" values="0 0 0 0 0 0 0 0 0 0 0 0 0 0 0 0 0 0 0.1 0"/>
<feBlend mode="normal" in2="BackgroundImageFix" result="effect1_dropShadow_6_364"/>
<feBlend mode="normal" in="SourceGraphic" in2="effect1_dropShadow_6_364" result="shape"/>
</filter>
<clipPath id="clip0_6_364">
<rect width="24.0125" height="24" fill="white" transform="translate(1.76978)"/>
</clipPath>
</defs>
</svg>

<svg width="27" height="24" fill="none" xmlns="http://www.w3.org/2000/svg"><g clip-path="url(#clip0_6_364)" filter="url(#filter0_d_6_364)"><path d="M4.771 18h18.01v-2H4.77v2zm0-5h18.01v-2H4.77v2zm0-7v2h18.01V6H4.77z" fill="#fff"/></g><defs><clipPath id="clip0_6_364"><path fill="#fff" transform="translate(1.77)" d="M0 0h24.012v24H0z"/></clipPath><filter id="filter0_d_6_364" x="-2.23" y="-4" width="32.013" height="32" filterUnits="userSpaceOnUse" color-interpolation-filters="sRGB"><feFlood flood-opacity="0" result="BackgroundImageFix"/><feColorMatrix in="SourceAlpha" values="0 0 0 0 0 0 0 0 0 0 0 0 0 0 0 0 0 0 127 0" result="hardAlpha"/><feOffset/><feGaussianBlur stdDeviation="2"/><feColorMatrix values="0 0 0 0 0 0 0 0 0 0 0 0 0 0 0 0 0 0 0.1 0"/><feBlend in2="BackgroundImageFix" result="effect1_dropShadow_6_364"/><feBlend in="SourceGraphic" in2="effect1_dropShadow_6_364" result="shape"/></filter></defs></svg>
